X: 1609
T: New Moon, The
R:hornpipe
N:"Collected by F. O'Neill"
B:O'Neill's 1609
Z:Transcribed by Michael Hogan
M:2/4
L:1/16
K:G
(3DEF | GFGA BGdB | AGAB cAFA | GFGA BGdB | AGAB A2(3DEF |
GFGA BGdB | AGAB Agfa | gdec dBcA | B2G2 G2 :|
(3def) | gfga gfed | cBAB cdef | gfga gfed | e2a2 a2(3def |
gfga gfed | cBAB cdef | gdec dBcA | B2G2 G2 :||


